svg/FoundationIcons/fi-checkbox.svg

<svg xmlns="http://www.w3.org/2000/svg" viewBox="0 0 100 100" enable-background="new 0 0 100 100"><path fill="#231f20" d="m92.04 24.333l-8.62-8.622c-.303-.302-.712-.473-1.141-.473-.428 0-.838.171-1.141.473l-31.15 31.15-6.07-6.068c-.63-.63-1.651-.63-2.282 0l-8.622 8.622c-.303.302-.473.713-.473 1.141 0 .427.17.838.473 1.141l15.782 15.778c.302.302.712.473 1.141.473.019 0 .037-.001.056-.001.016 0 .033.009.05.009.414 0 .825-.158 1.141-.473l40.855-40.857c.63-.632.63-1.653 0-2.283"/><path d="m72.02 53.625v21.16h-44.04v-44.04h31.06l9.979-9.978h-45.824v.007c-.023 0-.044-.007-.068-.007-2.788 0-5.05 2.229-5.113 5h-.012v54h.013c.067 2.728 2.259 4.92 4.987 4.987v.013h.125.0001c0 0 0 0 0 0h53.748.0001c0 0 0 0 0 0h.125v-.013c2.729-.067 4.92-2.259 4.987-4.987h.013v-36.12l-9.978 9.978"/></svg>

<?xml version="1.0" encoding="utf-8"?>
<!-- Generator: Adobe Illustrator 17.0.0, SVG Export Plug-In . SVG Version: 6.00 Build 0)  -->
<!DOCTYPE svg PUBLIC "-//W3C//DTD SVG 1.1//EN" "http://www.w3.org/Graphics/SVG/1.1/DTD/svg11.dtd">
<svg version="1.1" id="Layer_1" xmlns="http://www.w3.org/2000/svg" xmlns:xlink="http://www.w3.org/1999/xlink" x="0px" y="0px"
	 width="100px" height="100px" viewBox="0 0 100 100" enable-background="new 0 0 100 100" xml:space="preserve">
<g>
	<g>
		<path fill="#231F20" d="M92.038,24.333l-8.62-8.622c-0.303-0.302-0.712-0.473-1.141-0.473c-0.428,0-0.838,0.171-1.141,0.473
			L49.987,46.86l-6.07-6.068c-0.63-0.63-1.651-0.63-2.282,0l-8.622,8.622c-0.303,0.302-0.473,0.713-0.473,1.141
			c0,0.427,0.17,0.838,0.473,1.141l15.782,15.778c0.302,0.302,0.712,0.473,1.141,0.473c0.019,0,0.037-0.01,0.056-0.01
			c0.016,0,0.033,0.009,0.05,0.009c0.414,0,0.825-0.158,1.141-0.473l40.855-40.857C92.668,25.984,92.668,24.963,92.038,24.333z"/>
		<g>
			<path d="M72.022,53.625v21.159H27.978V30.74h31.06l9.979-9.978H23.193v0.007c-0.023,0-0.044-0.007-0.068-0.007
				c-2.788,0-5.045,2.229-5.113,5H18v54h0.013c0.067,2.728,2.259,4.92,4.987,4.987v0.013h0.125l0.001,0c0,0,0,0,0,0h53.748l0.001,0
				c0,0,0,0,0,0H77v-0.013c2.729-0.067,4.92-2.259,4.987-4.987H82V43.647L72.022,53.625z"/>
		</g>
	</g>
</g>
</svg>
